svgs/sharp-light/bowl-rice.svg

<svg xmlns="http://www.w3.org/2000/svg" viewBox="0 0 512 512"><!--! Font Awesome Pro 6.6.0 by @fontawesome - https://fontawesome.com License - https://fontawesome.com/license (Commercial License) Copyright 2024 Fonticons, Inc. --><path d="M176 64l16 0 32 0 16 0 0 32-16 0-32 0-16 0 0-32zm16 64l32 0 16 0 0 32-16 0-32 0-16 0 0-32 16 0zM48 192l32 0 16 0 0 32-16 0-32 0-16 0 0-32 16 0zm80 239.8l0 16.2 256 0 0-16.2 0-20.2 18.3-8.7c43.7-20.8 74.6-64.1 77.5-114.9L32.2 288c2.9 50.8 33.8 94.2 77.5 114.9l18.3 8.7 0 20.2zm-32 0C41.5 405.9 3.2 351.6 .2 288c-.1-2.7-.2-5.3-.2-8l0-24 32 0 448 0 32 0 0 24c0 2.7-.1 5.3-.2 8c-3 63.6-41.3 117.9-95.8 143.8l0 16.2 0 32-32 0-256 0-32 0 0-32 0-16.2zM224 192l16 0 32 0 16 0 0 32-16 0-32 0-16 0 0-32zm-96 0l16 0 32 0 16 0 0 32-16 0-32 0-16 0 0-32zM96 128l32 0 16 0 0 32-16 0-32 0-16 0 0-32 16 0zm224 64l16 0 32 0 16 0 0 32-16 0-32 0-16 0 0-32zm-32-64l32 0 16 0 0 32-16 0-32 0-16 0 0-32 16 0zm128 64l16 0 32 0 16 0 0 32-16 0-32 0-16 0 0-32zm-32-64l32 0 16 0 0 32-16 0-32 0-16 0 0-32 16 0zM288 64l32 0 16 0 0 32-16 0-32 0-16 0 0-32 16 0z"/></svg>

<svg xmlns="http://www.w3.org/2000/svg" viewBox="0 0 512 512"><!--! Font Awesome Pro 6.4.2 by @fontawesome - https://fontawesome.com License - https://fontawesome.com/license (Commercial License) Copyright 2023 Fonticons, Inc. --><path d="M176 64h16 32 16V96H224 192 176V64zm16 64h32 16v32H224 192 176V128h16zM48 192H80 96v32H80 48 32V192H48zm80 239.8V448H384V431.8 411.6l18.3-8.7c43.7-20.8 74.6-64.1 77.5-114.9H32.2c2.9 50.8 33.8 94.2 77.5 114.9l18.3 8.7v20.2zm-32 0C41.5 405.9 3.2 351.6 .2 288c-.1-2.7-.2-5.3-.2-8V256H32 480h32v24c0 2.7-.1 5.3-.2 8c-3 63.6-41.3 117.9-95.8 143.8V448v32H384 128 96V448 431.8zM224 192h16 32 16v32H272 240 224V192zm-96 0h16 32 16v32H176 144 128V192zM96 128h32 16v32H128 96 80V128H96zm224 64h16 32 16v32H368 336 320V192zm-32-64h32 16v32H320 288 272V128h16zm128 64h16 32 16v32H464 432 416V192zm-32-64h32 16v32H416 384 368V128h16zM288 64h32 16V96H320 288 272V64h16z"/></svg>
